src/assets/icons/footer/ios.svg

<svg width="23" height="29" viewBox="0 0 23 29" fill="none" xmlns="http://www.w3.org/2000/svg">
<path d="M23 21.7395C22.9236 21.955 22.8497 22.1865 22.7645 22.414C22.0598 24.3224 20.9898 26.0167 19.6916 27.5695C19.441 27.8718 19.1491 28.1454 18.8476 28.3992C18.2518 28.9035 17.5661 29.2082 16.773 29.236C16.1772 29.2551 15.6053 29.1469 15.054 28.9226C14.6547 28.7595 14.2617 28.5774 13.8568 28.4302C12.5427 27.9529 11.2357 28.0158 9.94306 28.5265C9.47692 28.711 9.01713 28.9147 8.54223 29.0746C7.99176 29.2591 7.42061 29.3339 6.83912 29.2241C6.33161 29.1294 5.88773 28.8932 5.47567 28.5885C4.96418 28.2099 4.53463 27.7485 4.13291 27.2601C2.23093 24.9405 0.954191 22.3178 0.337697 19.3801C0.0720084 18.1169 -0.0552676 16.8433 0.022689 15.5523C0.114169 14.0043 0.473724 12.5303 1.30102 11.2018C2.33911 9.53211 3.80358 8.43833 5.73023 7.98729C6.88923 7.71444 8.01642 7.82581 9.12134 8.25139C9.70283 8.47412 10.2859 8.69447 10.8698 8.91323C11.4075 9.11528 11.9429 9.11528 12.4814 8.90925C13.0772 8.68174 13.6738 8.45503 14.272 8.23309C14.8854 8.00957 15.509 7.82661 16.1597 7.7749C17.1334 7.69615 18.0832 7.82263 19.0075 8.13207C20.3177 8.57038 21.3836 9.34596 22.1886 10.4755C22.2101 10.5066 22.234 10.5408 22.2499 10.5654C20.2198 11.9806 19.064 13.8499 19.2318 16.3811C19.4013 18.9139 20.7647 20.6274 23 21.7395ZM11.6128 7.46148C12.2118 7.47739 12.7877 7.36205 13.3421 7.1417C15.8709 6.13781 17.193 3.46263 17.1533 1.41666C17.1501 1.252 17.1389 1.08734 17.1318 0.896423C16.8717 0.935402 16.6346 0.953698 16.4071 1.01097C14.5608 1.4636 13.1401 2.49374 12.2062 4.16185C11.6597 5.13869 11.3558 6.17599 11.4489 7.30955C11.4553 7.42966 11.499 7.45989 11.6128 7.46148Z" fill="#90A4AE"/>
</svg>

<svg width="23" height="29" fill="none" xmlns="http://www.w3.org/2000/svg"><path d="M23 21.74c-.076.215-.15.447-.235.674-.705 1.908-1.775 3.603-3.073 5.155-.251.303-.543.576-.844.83-.596.505-1.282.81-2.075.837a4.16 4.16 0 01-1.719-.313c-.4-.163-.792-.346-1.197-.493-1.314-.477-2.621-.414-3.914.096-.466.185-.926.389-1.4.549-.551.184-1.122.259-1.704.15-.507-.096-.951-.332-1.363-.637-.512-.378-.941-.84-1.343-1.328C2.23 24.94.954 22.318.338 19.38c-.266-1.263-.393-2.537-.315-3.828.091-1.548.45-3.022 1.278-4.35 1.038-1.67 2.503-2.764 4.43-3.215 1.158-.273 2.285-.161 3.39.264.582.223 1.165.443 1.749.662a2.198 2.198 0 001.611-.004c.596-.227 1.193-.454 1.791-.676.613-.223 1.237-.406 1.888-.458a7.09 7.09 0 012.848.357 6.238 6.238 0 013.18 2.344c.022.03.046.065.062.09-2.03 1.415-3.186 3.284-3.018 5.815.17 2.533 1.533 4.246 3.768 5.358zM11.613 7.46c.599.016 1.175-.099 1.73-.32 2.528-1.003 3.85-3.678 3.81-5.724-.003-.165-.014-.33-.021-.52-.26.038-.497.057-.725.114-1.846.453-3.267 1.483-4.2 3.15-.547.978-.851 2.015-.758 3.149.006.12.05.15.164.151z" fill="#90A4AE"/></svg>
